X: 5338
T: Bruremarsj Frå Verdal
R: hornpipe
M: 4/4
K: Cmajor
G>c|e3 c d>c B/c/d|d>c c>c cdef|e2eg c'2 a/f/a|a>g e>e e2 c'>e|
(fa/f/) (fa/f/) (eg/e/) (eg/e/)|d2 d>d d2 (c/d/e/f/)|gc'af {ef}ef/e/ dB/d/|d>c c>c c2:|
|:z c|cB G>G G2 c/d/e|f2 e2 d2 G>c|e2 e>e e2 (c/d/e/f/)|g2 g/a/g/f/ e2 cd/e/|
e2 e<g c'2 a/f/a|e2 e<g c'2 a/f/a|e2 eg a>g fe|d2 d>d dagf|
e2 e2 d>c B/c/d|d>c c>c cdef|gc'af {ef}ef/e/ dB/d/|d>c c>c c2:|

